X:1
T:Title
%%score ( 1 2 ) ( 3 4 )
L:1/8
Q:1/4=130
M:6/8
K:Ab
V:1 treble nm="Choir Aahs, Staff"
V:2 treble 
V:3 bass nm="Choir Aahs, Staff-1"
V:4 bass 
V:1
 [CE] [EA]2 [EA] [EA]2 | [EA] [DG]2 [DF] [CE]2 | E [EA]2 [EA]AG | A [GB]2- [GB]2- [GB]/ z/ | %4
w: By~R.~M.~McAnally * * *||||
 E [Ec]2 [EB] [Ec]2 | [Ed] [Ee]2 [Ec] [CA]2 | [FB] [Ec]2 [Ed]BA | [EG] [EA]2- [EA]2- [EA]/ z/ | %8
w: ||||
 [Ac] [Ae]2 [Ae]ed | [Ac] [Gd]2 [Gd][Gd][Ac] | [EB] [Ec]2 [Ed] [Ee]2 | %11
w: |||
 [Ec] [EB]2- [EB]2- [EB]/ z/ | E [Ec]2 [EB] [Ec]2 | [Ed] [Ee]2 [Ec] [CA]2 | z3 z .B2 | %15
w: ||||
 [EG] [EA]2- [EA]2- [EA]/ z/ |] %16
w: |
V:2
 x6 | x6 | z3 z E2 | x6 | x6 | x6 | z3 z E2 | x6 | z3 z A2 | x6 | x6 | x6 | x6 | x6 | %14
 [FB] [Ec]2 [Ed]E-[EA] | x6 |] %16
V:3
 [A,,A,] [A,,C]2 [A,,C] [A,,C]2 | [C,A,] [E,B,]2 [E,G,] [A,,A,]2 | [A,,C] [C,E]2 [C,E][C,E][B,,D] | %3
 [A,,C] [E,E]2- [E,E]2- [E,E]/ z/ | [E,G,] [C,A,]2 [B,,G,] [A,,A,]2 | [A,,B,] [A,C]2 A, A,2 | %6
 [D,A,] [E,A,]2 [E,B,]DC | [E,B,] [A,,C]2- [A,,C]2- [A,,C]/ z/ | A, [A,C]2 [A,C]CB, | z3 z .B,2 | %10
 [E,G,] A,2 [A,B,] [A,C]2 | A, [E,G,]2- [E,G,]2- [E,G,]/ z/ | [E,G,] [C,A,]2 [B,,G,] [A,,A,]2 | %13
 [A,,B,] [A,C]2 A, A,2 | z3 z .D2 | [E,B,] [A,,C]2- [A,,C]2- [A,,C]/ z/ |] %16
V:4
 x6 | x6 | x6 | x6 | x6 | x6 | z3 z E,2 | x6 | z3 z A,2 | A, [E,B,]2 [E,B,]E,-[E,A,] | x6 | x6 | %12
 x6 | x6 | [D,A,] [E,A,]2 [E,B,]E,-[E,C] | x6 |] %16

